X: 3
T: Will You Come Down To Limerick
R: slip jig
M: 9/8
L: 1/8
K: Gmaj
d|:cAG GDG G2d|cAG GDE F2d|cAG GDG GAG|1FAd fed cAd:|2FAd fed cAF||
def gaf g2f|def gag fed|cde fge f2e|def gfd cAF|
def gaf g2f|def gag fga|bgb afa g2e|fed cAG FGA|
|:BGB AFA ~G3|.B.B.B GBd cAG|BDD ADD G2E|1FGA fed cAG:|2FGA fed cAd||


Tune 2337	Setting 21614

